img/logo-tablet.svg

<svg width="102" height="20" viewBox="0 0 102 20" fill="none" xmlns="http://www.w3.org/2000/svg">
<path d="M1.78992 17.4945C0.902539 16.1681 0.478241 14.5814 0.583977 12.9848V6.46795C0.472038 4.85957 0.889922 3.25894 1.77269 1.91482C2.5709 0.877915 3.93476 0.362359 5.86427 0.368151C7.79377 0.373944 9.10021 0.828677 9.78358 1.73235C10.6168 2.8522 11.0234 4.23681 10.9292 5.63379V7.16308H7.36308V5.50345C7.35827 5.06677 7.32084 4.63108 7.2511 4.20007C7.20799 3.88806 7.06596 3.59848 6.84625 3.3746C6.71061 3.25727 6.55315 3.1684 6.38306 3.1132C6.21297 3.058 6.03367 3.03757 5.85565 3.0531C5.6 3.01462 5.3388 3.05653 5.10761 3.17314C4.87641 3.28975 4.68645 3.47539 4.56357 3.70479C4.33709 4.31501 4.2374 4.96569 4.27071 5.61641V13.8885C4.23141 14.5435 4.34653 15.1986 4.60665 15.8001C4.73093 16.0171 4.91535 16.1927 5.13724 16.3054C5.35914 16.4181 5.60884 16.463 5.85565 16.4344C6.09818 16.469 6.34535 16.4255 6.5619 16.31C6.77846 16.1946 6.95333 16.0131 7.06159 15.7914C7.26996 15.1801 7.36059 14.5342 7.32862 13.8885V12.1507H10.8948V13.6539C10.9997 15.0715 10.6263 16.4832 9.83526 17.6596C9.07724 18.6154 7.76793 19.0846 5.90734 19.0846C4.04675 19.0846 2.59101 18.5633 1.78992 17.4945Z" fill="#111111"/>
<path d="M15.788 0.620117H19.871L23.3166 18.8674H19.9227L19.3111 14.8356H16.4513L15.7622 18.8413H12.3167L15.788 0.620117ZM18.9321 12.5417L17.8468 5.208L16.77 12.5417H18.9321Z" fill="#111111"/>
<path d="M25.9615 3.36589H23.1707V0.620117H32.4047V3.36589H29.6483V18.8413H25.9529L25.9615 3.36589Z" fill="#111111"/>
<path d="M39.6498 0.620117H46.6528V2.51436H42.1736V8.53595H45.8087V10.3346H42.1736V17.0166H46.6959V18.8413H39.6498V0.620117Z" fill="#444444"/>
<path d="M48.7292 0.620117H50.452L55.6203 12.7241V0.620117H57.7221V18.8674H56.1113L50.943 6.42448V18.8413H48.8068L48.7292 0.620117Z" fill="#444444"/>
<path d="M60.505 0.620117H67.4995V2.51436H63.0203V8.53595H66.6898V10.3346H63.0547V17.0166H67.5511V18.8413H60.505V0.620117Z" fill="#444444"/>
<path d="M69.5758 0.620131H73.2108C74.6434 0.503851 76.0699 0.907526 77.2335 1.75841C78.0949 2.51437 78.517 3.74823 78.517 5.46C78.517 7.77711 77.7733 9.19344 76.286 9.709L78.8701 18.8413H76.4238L74.055 10.2912H72.0997V18.8413H69.5758V0.620131ZM73.0213 8.44038C73.8512 8.52137 74.681 8.28576 75.3471 7.78C75.6178 7.45684 75.8201 7.08123 75.9416 6.67628C76.063 6.27132 76.1011 5.84558 76.0534 5.42524C76.0707 4.83573 75.9862 4.24768 75.8036 3.68741C75.7295 3.48082 75.6152 3.29132 75.4672 3.13013C75.3192 2.96894 75.1407 2.83933 74.9422 2.74898C74.383 2.51755 73.78 2.4137 73.1764 2.44486H72.0652V8.47514L73.0213 8.44038Z" fill="#444444"/>
<path d="M81.9114 17.4945C81.0881 16.0926 80.7065 14.4714 80.8175 12.8458V6.76341C80.7878 5.58964 80.933 4.41803 81.2481 3.28775C81.4969 2.43799 82.0257 1.69928 82.747 1.19366C83.6178 0.664265 84.6259 0.41005 85.6412 0.463767C86.298 0.40076 86.9605 0.483201 87.5824 0.705325C88.2043 0.92745 88.7707 1.2839 89.2418 1.74976C90.0683 2.91762 90.4588 4.34261 90.3444 5.77285V6.4506H87.9756V5.88581C87.9917 5.21028 87.9398 4.53485 87.8205 3.86992C87.7421 3.44378 87.5086 3.06259 87.1659 2.80115C86.7187 2.53495 86.2024 2.41081 85.6843 2.4449C85.1216 2.39634 84.5624 2.57089 84.1252 2.93149C83.7679 3.27342 83.5345 3.72614 83.4619 4.21749C83.3528 4.93324 83.3038 5.65701 83.3155 6.38109V13.1499C83.2471 14.1785 83.4213 15.2088 83.8237 16.1564C84.0574 16.4478 84.3541 16.6815 84.6911 16.8395C85.028 16.9975 85.3964 17.0758 85.7679 17.0682C86.1394 17.0607 86.5043 16.9675 86.8347 16.796C87.1651 16.6244 87.4522 16.3789 87.6741 16.0782C88.0892 15.076 88.269 13.9906 88.1995 12.9067V11.6207H85.9083V9.822H90.4736V18.8414H88.9145L88.6647 16.7473C88.4673 17.443 88.0423 18.0509 87.459 18.4721C86.8757 18.8933 86.1682 19.1031 85.4517 19.0673C84.778 19.1272 84.1003 19.0144 83.4814 18.7395C82.8624 18.4645 82.3224 18.0363 81.9114 17.4945V17.4945Z" fill="#444444"/>
<path d="M95.7113 12.4113L91.8093 0.620117H94.1522L96.9173 9.41356L99.6393 0.620117H102.008L98.1318 12.4113V18.8413H95.72L95.7113 12.4113Z" fill="#444444"/>
</svg>

<svg width="102" height="20" fill="none" xmlns="http://www.w3.org/2000/svg"><path d="M1.79 17.494a7.25 7.25 0 0 1-1.206-4.51V6.469a7.365 7.365 0 0 1 1.189-4.553C2.57.878 3.935.362 5.864.368c1.93.006 3.236.46 3.92 1.364a5.875 5.875 0 0 1 1.145 3.902v1.53H7.363v-1.66A8.764 8.764 0 0 0 7.251 4.2a1.465 1.465 0 0 0-.405-.825 1.34 1.34 0 0 0-.99-.322 1.248 1.248 0 0 0-1.292.652 4.79 4.79 0 0 0-.293 1.911v8.273c-.04.655.076 1.31.336 1.911a1.265 1.265 0 0 0 1.249.634c.242.035.49-.009.706-.124.216-.115.391-.297.5-.519a5.115 5.115 0 0 0 .267-1.902V12.15h3.566v1.503a6.342 6.342 0 0 1-1.06 4.006c-.758.955-2.067 1.425-3.928 1.425-1.86 0-3.316-.522-4.117-1.59ZM15.788.62h4.083l3.446 18.247h-3.394l-.612-4.031h-2.86l-.689 4.005h-3.445L15.788.621Zm3.144 11.922-1.085-7.334-1.077 7.334h2.162ZM25.962 3.366H23.17V.62h9.234v2.746h-2.757V18.84h-3.695l.009-15.475Z" fill="#111"/><path d="M39.65.62h7.003v1.894h-4.48v6.022h3.636v1.799h-3.635v6.682h4.522v1.824H39.65V.621ZM48.73.62h1.722l5.168 12.104V.62h2.102v18.247h-1.61L50.942 6.424v12.417h-2.136L48.729.621ZM60.505.62h6.994v1.894H63.02v6.022h3.67v1.799h-3.635v6.682h4.496v1.824h-7.046V.621ZM69.576.62h3.635a5.992 5.992 0 0 1 4.023 1.138c.86.756 1.283 1.99 1.283 3.702 0 2.317-.744 3.733-2.231 4.249l2.584 9.132h-2.446l-2.369-8.55H72.1v8.55h-2.524V.621Zm3.445 7.82c.83.081 1.66-.154 2.326-.66a3.11 3.11 0 0 0 .706-2.355 5.124 5.124 0 0 0-.25-1.738 1.645 1.645 0 0 0-.86-.938 4.068 4.068 0 0 0-1.767-.304h-1.11v6.03l.955-.035ZM81.911 17.494a8.093 8.093 0 0 1-1.094-4.648V6.763a11.83 11.83 0 0 1 .431-3.475 3.892 3.892 0 0 1 1.499-2.094 5.056 5.056 0 0 1 2.894-.73c.657-.063 1.32.02 1.941.241a4.525 4.525 0 0 1 1.66 1.045 6.121 6.121 0 0 1 1.102 4.023v.678h-2.368v-.565a10.058 10.058 0 0 0-.156-2.016 1.74 1.74 0 0 0-.654-1.069 2.566 2.566 0 0 0-1.482-.356 2.158 2.158 0 0 0-1.559.486c-.357.342-.59.795-.663 1.286-.11.716-.158 1.44-.147 2.164v6.769a6.577 6.577 0 0 0 .509 3.006 2.44 2.44 0 0 0 1.944.912 2.422 2.422 0 0 0 1.906-.99 7.102 7.102 0 0 0 .525-3.171V11.62h-2.29V9.822h4.565v9.02h-1.56l-.25-2.095a3.206 3.206 0 0 1-1.205 1.725 3.159 3.159 0 0 1-2.007.595 3.984 3.984 0 0 1-1.97-.328 4.02 4.02 0 0 1-1.57-1.245ZM95.711 12.411 91.81.621h2.343l2.765 8.793L99.64.62h2.369l-3.876 11.791v6.43H95.72l-.009-6.43Z" fill="#444"/></svg>
